X:1
T:Title
%%score { ( 1 4 ) | ( 2 3 ) }
L:1/8
Q:1/4=100
M:4/4
K:G
V:1 treble nm="Grand Piano"
V:4 treble 
V:2 treble 
V:3 treble 
V:1
 G2 G2 B>A G2 | E2 G2 D4 | d2 d2 B>A G2 | z4 [FA]4 | G2 G2 B>A G2 | E2 G2 D4 | d2 d2 B>A [B,DG]2 | %7
w: Elisha~A.~Hoffman * * * *|||||||
 [DGB]2 [CDA]2 [B,DG]4 | [B,DG]2 [CEG]>[G,CE] [G,B,G]4 | B2 B>G B4 | d2 d>d d2 B>A | %11
w: ||||
 G2 (3GAB [FA]4 | [DG]2 [EG]>[CE] [B,G]4 | B2 B>G B4 | d2 d>d d2 B>G | %15
w: ||||
 [CFA]2 (3[CDA][B,DG][CDA] [B,DG]4 |] %16
w: |
V:2
 z4 D2 z2 | [C,G,C]2 [E,G,C]2 [G,B,]4 | z4 D2 z2 | z4 D2 z2 | z4 D2 z2 | %5
 [C,G,C]2 [E,G,C]2 [G,B,]4 | z4 D2 z2 | D,2 D,2 G,,4 | G,2 C,>C, G,,4 | %9
 [G,DG]2 [G,DG]>[G,B,D] [G,DG]4 | [G,B,G]2 [G,B,G]>[G,B,G] [G,B,G]2 [G,DG]>[A,DF] | %11
 [B,D]2 (3[B,D][A,DF][G,DG][K:bass] [D,D]4 | [G,B,]2 [C,C]>[C,G,] [G,,G,]4 | %13
 [G,DG]2 [G,DG]>[G,B,D] [G,DG]4 | [G,B,G]2 [G,B,G]>[G,B,G] [G,B,G]2 [G,DG]>[K:bass][G,B,] | %15
 D,2 (3D,D,D, G,,4 |] %16
V:3
 [G,B,D]2 [G,B,D]2 [G,G]->[G,CG] [G,B,D]2 | x8 | [G,B,G]2 [G,B,G]2 [G,G]->[G,CG] [G,B,D]2 | %3
 [F,D]2 [E,^C]2 D,4 | [G,B,D]2 [G,B,D]2 [G,G]->[G,CG] [G,B,D]2 | x8 | %6
 [G,B,D]2 [G,B,D]2 G,->[G,C] G,2 | x8 | x8 | x8 | x8 | x4[K:bass] x4 | x8 | x8 | x15/2[K:bass] x/ | %15
 x8 |] %16
V:4
 x8 | x8 | x8 | A2 [GA]2 z2 C2 | x8 | x8 | x8 | x8 | x8 | x8 | x8 | x8 | x8 | x8 | x8 | x8 |] %16

